X: 21
T:Waiting for Bridget
M:12/8
L:1/8
C:Dan Flynn
R:Slide
K:G
G2D DEG B2d dBA|G2D DEG E3 DEF|!
G2D DEG B2d d2B|cdc cBA E3 DEF||!
G2D DEG B2d dBA|G2D DEG E3 DEF|!
G2D DEG B2d d2B|cdc cBA G3 GAB|]!
c2c edc B2B dcB|A2A AGA BAG EGB|!
c2c edc B2B dcB|A2A AGA B2g GAB||!
c2c edc B2B dcB|A2A AGA BAG EGB|!
c2c edc B2B dcB|A2A BAG G3 DEF|]!
